X: 33
T: UP A LAZY RIVER
C: H.Carmichael
M: C
L: 1/8
K: G
|: "E7"E>^G B>=f e>d ^D>E | "E7"d2 "Eb7"_d2 "D7"c3 "(E/G#)"B | "A7"^C>E G>B A>G =B,>=C | "A"F2 "Bb"=F2 "A9"E4 |
[1 "D7"F>e d>_d c2 ^D>E | "D"B2 "Eb7"_B2 "D7"A4 | "G"^A>B D>_D "D7"C>=A "Cdim"E>F | "G"G2 B,D- D4 :|
[2 "C"e>d c>B "Cdim"_B4 | "G"g>f "F#7"e>_e "F6"d2- "E7"d2 | "A9"e>g e>B "D7"dB2D |
"G"G>G "F7"F>G "E7"^G4 | "A9"e>g e>B "D7"dB2 D | "G F6 F G6"G6 z2 |]
